X:168000
T:All the Blue Bonnets are Over the Border
H:
C:
B: 
O:Kevin Fraser
Z:Kevin Fraser
Q:3/8=110
K:HP
M:6/8
L:1/8
R:March
U: R = ///
U: r = //
U: V = !accent!
V:M gstem=up stem=down name="Melody" sname="Melody" 
V:H gstem=up stem=down name="Harmony" sname="Harmony"
V:C gstem=up stem=down name="C-Harmony" sname="C-Harmony"
V:S gstem=up stem=down dyn=up stafflines=1 clef=perc middle=G name="Snare" sname="Snare"" sname="Snare"
V:B gstem=up stem=down clef=none dyn=up name="Bass" sname="Bass"
V:T gstem=up stem=down clef=none dyn=up name="Tenor" sname="Tenor"
V:BB gstem=up stem=down name="Brass Bass" sname="ABCD-C" transpose=-1  octave=-1 clef=bass
V:BC gstem=up stem=down name="Brass Chord" sname="ABCD-D" transpose=-1
V:BD gstem=up stem=down name="Brass Chord 2" sname="ABCD-B" transpose=-1
V:P gstem=up stem=down name="Piano" octave=-1
I:MIDI=program 110
%%MIDI gracedivider 4
I:linebreak $
%%score {M}
%%MIDI program 109 #bagpipes
%%MIDI vol 100
[V:M] 	[|: {g}A2{GdGe}A {gcd}c2e |  a2{GdG}a {g}a2e  |  {g}f2{GdG}f {g}f<af   | {gef}e>c{e}A {gBd}B2{d}c | $
[V:M]    |  {g}A2{GdGe}A {gcd}c2e |  a2{GdG}a {g}a2e  |  {gfg}f>ed {g}c2{GdG}e | {g}f<ac {gBd}B2 {G}A    :|] $
[V:M]   [|: {g}A>{d}ce   {gef}e>ce| {gfg}f>ed {gcd}c>B{G}A | {g}A>{d}ce {g}f>ga | A>B{GdG}c {gBd}B2{G}A | $
[V:M]    |  {g}A>{d}ce   {gef}e>ce| {gfg}f>ed {gcd}c>B{G}A | {ag}a>gf {gef}e>{g}ce | {g}f<ac {gBd}B2 {G}A    :|]$
[V:M]  [|:{Gdc}d3 {gdG}d3 |  {g}d>fe {gde}d>B{G}A | {Gdc}d>B{G}B {gBd}B2{gf}g | a2{GdG}a {gfg}f2e | $
[V:M]  | {Gdc}d3 {gdG}d3 | {g}d>fe {gde}d>B{G}A | {Gdc}d>cB {g}A>B{d}c | {Gdc}d>ef {gef}e2d  :|]$
[V:M] [|: {gdG}d>fa {g}a>fd | {ag}a>gf {gfg}f>ef | {Gdc}d>fa {g}a>fd | {gdG}d>ef {gef}e2d | $
[V:M]| {gdG}d>fa {g}a>fd | {ag}a>gf {gfg}f>ef |{Gdc}d>cB {g}A>B{d}c | {Gdc}d>ef {gef}e2d  :|]$
[V:M] | Z | Z|Z |Z | $
[V:M] | Z | Z|{gf}g>ag {a}f<af |Z | 
w:    |   |  |Alternate Bar 3 Line 1

%%MIDI channel 10
%%MIDI program 0 
%%MIDI drummap c 38
%%MIDI drummap A 38
%%MIDI vol 50
%%MIDI drumon
% %MIDI drumoff
[V:S] |: {A}c2(rcA2) (rc | A)>2cA {A}c>A{A}c | [""{A}c2(rcA2) (rc | A)>2cA {A}c2]A | $
[V:S] |  {A}c2(rcA2) (rc | A)>2cA {A}c>A{A}c | [""{A}c3(rc3) | A)>2cA {A}c2A] :| $
[V:S] |: (rc3  A)>2cA | (rc3  A)>2cA | [""{A}c2(rcA2) (rc | A)>2cA {A}c2]A | $
[V:S] |  (rc3  A)>2cA | (rc3  A)>2cA  | [""{A}c3(rc3) | A)>2cA {A}c2A] :| $
L:1/16
[V:S]|: {c}A4(rA2c4) (rA2 | c3)Ac2 {c}A3Ac2 | {c}A3Ac2 (rA6 | A3)Ac2 {c}A4c2 | $
[V:S]|  {c}A4(rA2c4) (rA2 | c3)Ac2 {c}A3Ac2 | {c}A3(rAA2) (rA6 | A3)Ac2 {c}A4c2  :| $
[V:S]|:  (rA3A)c2 (rA3A)c2      | A3(rAA2) (rA3A)c2 | {c}A3Ac2 (rA6 | A3)Ac2 {c}A4c2 | $
[V:S]| (rA3A)c2 (rA3A)c2      | A3(rAA2) (rA3A)c2 | {c}A3(rAA2) (rA6 | A3)Ac2 {c}A4c2  :| $
% %MIDI program 116 #taiko drum
% %MIDI program 0 
%%MIDI channel 10
%%MIDI vol 80
%%MIDI drummap A 35
%%MIDI drumon
L:1/8
[V:B]     [|:  !>!c3 A3    	| c2 !>!cA3 	| !>!c3 A3          | c2 !>!cA3 | 
[V:B]     |  !>!c3 A3       	| c2 !>!cA3 	| !>!c3 A3          | c2 !>!cA3 :|] $
[V:B]     [|: !>!c3 A3         | c2 !>!cA3     | !>!c3 A3          | c2 !>!cA3 |
[V:B]     | !>!c3 A3         | c2 !>!cA3     | !>!c3 A3          | c2 !>!cA3 :|] $
[V:B]     [|:  !>!c3 A3    	| c2 !>!cA3 	| !>!c3 A3          | c2 !>!cA3 | 
[V:B]     |  !>!c3 A3       	| c2 !>!cA3 	| !>!c3 A3          | c2 !>!cA3 :|] $
[V:B]     [|: !>!c3 A3         | c2 !>!cA3     | !>!c3 A3          | c2 !>!cA3 |
[V:B]     | !>!c3 A3         | c2 !>!cA3     | !>!c3 A3          | c2 !>!cA3 :|] $
%%MIDI drumoff
%%MIDI drummap e 43
%%MIDI channel 10
%%MIDI program 117 #Melodic Tom
%%MIDI vol 70
%%MIDI drumon
L:1/8
[V:T]   [|: g2e g2e | g2e g2e | g2e g2e | g>eg e3 | 
[V:T]    g3 e3 | g3 e3 | g3 z3 | g>eg e3 :|] $
[V:T]   [|: g2e g2e | g2e g2e | g2e g2e | g>eg e3 | 
[V:T]    g3 e3 | g3 e3 | g3 z3 | g>eg e3 :|] 
%%MIDI drumoff

